X: 1
T: Jinkin' Mermaid, The
M: 4/4
L: 1/8
R: reel
K: Amin
cBAG ABcA|B ~E3 cEBE|cBAG ABcd|efed cBAB|
cBAG ABcA|B ~E3 cEBE|cBAG ABcd|edcB A3 B:|
c2 Gc EcGc|A ~c3 gcac|A ~c3 GcEc|EFGA BdcB|
c2 Gc EcGc|A ~c3 gcac|e ~g3 ag^fa|g^fed cBAB:|
